images/icon (9).svg

<svg width="40" height="40" viewBox="0 0 40 40" fill="none" xmlns="http://www.w3.org/2000/svg">
<rect y="16.6667" width="23.3333" height="23.3333" fill="#7595FD"/>
<path d="M35 23.3333C35 22.4167 34.25 21.6667 33.3333 21.6667H30V25H33.3333C34.25 25 35 24.25 35 23.3333ZM33.3333 28.3333H30V31.6667H33.3333C34.25 31.6667 35 30.9167 35 30C35 29.0833 34.25 28.3333 33.3333 28.3333ZM20 23.3333H16.6667V30H20C20 31.8333 21.5 33.3333 23.3333 33.3333H28.3333V20H23.3333C21.5 20 20 21.5 20 23.3333Z" fill="white"/>
<path d="M8.33333 21.6667C8.33333 19.8333 9.83333 18.3333 11.6667 18.3333H14.1667C17.3833 18.3333 20 15.7167 20 12.5C20 9.28332 17.3833 6.66666 14.1667 6.66666H8.33333C7.41667 6.66666 6.66667 7.41666 6.66667 8.33332C6.66667 9.24999 7.41667 9.99999 8.33333 9.99999H14.1667C15.55 9.99999 16.6667 11.1167 16.6667 12.5C16.6667 13.8833 15.55 15 14.1667 15H11.6667C7.98333 15 5 17.9833 5 21.6667C5 25.35 7.98333 28.3333 11.6667 28.3333H15V25H11.6667C9.83333 25 8.33333 23.5 8.33333 21.6667Z" fill="white"/>
</svg>

<svg width="40" height="40" fill="none" xmlns="http://www.w3.org/2000/svg"><path fill="#7595FD" d="M0 16.667h23.333V40H0z"/><path d="M35 23.333c0-.916-.75-1.666-1.667-1.666H30V25h3.333C34.25 25 35 24.25 35 23.333zm-1.667 5H30v3.334h3.333c.917 0 1.667-.75 1.667-1.667s-.75-1.667-1.667-1.667zm-13.333-5h-3.333V30H20c0 1.833 1.5 3.333 3.333 3.333h5V20h-5A3.343 3.343 0 0020 23.333z" fill="#fff"/><path d="M8.333 21.667c0-1.834 1.5-3.334 3.334-3.334h2.5A5.84 5.84 0 0020 12.5a5.84 5.84 0 00-5.833-5.833H8.333c-.916 0-1.666.75-1.666 1.666 0 .917.75 1.667 1.666 1.667h5.834c1.383 0 2.5 1.117 2.5 2.5s-1.117 2.5-2.5 2.5h-2.5A6.665 6.665 0 005 21.667a6.665 6.665 0 006.667 6.666H15V25h-3.333a3.343 3.343 0 01-3.334-3.333z" fill="#fff"/></svg>
